lib/brands/icons/symantec.svg

<svg xmlns="http://www.w3.org/2000/svg" fill="none" aria-hidden="true" viewBox="0 0 48 48"><g id="symantec-Icon"><g id="Group"><path id="Vector" fill="#FDB511" d="M40.3155 6V7.10769H41.4232V6H40.3155ZM40.3155 8.21539V9.32308H41.4232V8.21539H40.3155ZM36.9924 9.32308V10.4308H38.1001V9.32308H36.9924ZM22.4994 10.1531C13.7043 10.1531 6.57666 17.2807 6.57666 26.0758C6.57666 34.8709 13.7043 42 22.4994 42C31.2944 42 38.4221 34.8724 38.4221 26.0758C38.4221 17.2793 31.2944 10.1531 22.5008 10.1531H22.4994ZM22.4994 15.2308C28.4839 15.2308 33.3459 20.0913 33.3459 26.0758C33.3459 32.0603 28.4839 36.9223 22.4994 36.9223C16.5149 36.9223 11.7001 32.0603 11.7001 26.0758C11.7001 20.0913 16.5149 15.2308 22.4994 15.2308V15.2308Z"/><g id="Union"><path fill="black" d="M39.2076 8.21536V7.10767H40.3153V8.21536H39.2076Z"/><path fill="black" d="M36.9922 9.32305H39.2076V8.21536H36.9922V9.32305Z"/><path fill="black" fill-rule="evenodd" d="M36.9922 11.5384V9.32305H35.8845V11.5384H34.7769V10.4307H33.6692V11.5384H34.7769V12.6461H32.5615V13.7538H31.4538V14.8615H30.3461V15.9692H29.2384V17.0769H28.1307V18.1839L27.023 18.1846C24.1312 21.7971 23.4031 23.3834 22.2511 26.3062C20.944 23.6625 19.3844 21.8385 16.6831 20.6304C16.6737 20.628 16.6645 20.6256 16.6553 20.6232C16.1628 20.4964 15.9147 20.4324 15.5754 20.9066C15.2298 21.3895 15.441 21.8252 15.853 22.3377C16.1406 22.6952 16.4376 23.0453 16.7346 23.3954C17.5543 24.3616 18.3736 25.3273 18.9915 26.445C19.6061 27.5557 20.3139 29.1133 20.8606 30.3166C21.1928 31.0477 21.4656 31.648 21.6219 31.9377C21.9512 32.5462 22.7488 32.815 23.0545 32.815C24.531 32.6401 24.6729 31.944 24.9167 30.7484C24.9426 30.6212 24.9697 30.4884 24.9996 30.35C25.5047 27.9884 26.159 25.5471 29.2384 22.6139V21.5077H30.3461V20.4H31.4538V19.2923H32.5615V18.1846H33.6692V17.0769H34.7769V15.9692H35.8845V14.8615H36.9922V12.6461H38.0999V11.5384H39.2076V10.4307H38.0999V11.5384H36.9922ZM36.9922 11.5384H35.8845V12.6461H34.7769V13.7538H35.8845V12.6461H36.9922V11.5384ZM32.5615 18.1846V17.0769H31.4538V18.1846H32.5615ZM31.4538 14.8615V15.9692H32.5615V14.8615H31.4538Z" clip-rule="evenodd"/></g></g></g></svg>

<svg xmlns="http://www.w3.org/2000/svg" fill="none" aria-hidden="true" viewBox="0 0 48 48"><path fill="#FDB511" d="M40.316 6v1.108h1.107V6h-1.108Zm0 2.215v1.108h1.107V8.215h-1.108Zm-3.324 1.108v1.108H38.1V9.323h-1.108Zm-14.493.83c-8.795 0-15.922 7.128-15.922 15.923S13.704 42 22.499 42c8.795 0 15.923-7.128 15.923-15.924 0-8.797-7.128-15.923-15.921-15.923h-.002Zm0 5.078c5.985 0 10.847 4.86 10.847 10.845 0 5.984-4.862 10.846-10.847 10.846-5.984 0-10.799-4.862-10.799-10.846 0-5.985 4.815-10.845 10.8-10.845Z"/><g fill="#000"><path d="M39.208 8.215V7.108h1.107v1.107h-1.107Zm-2.216 1.108h2.216V8.215h-2.216v1.108Z"/><path fill-rule="evenodd" d="M36.992 11.538V9.323h-1.107v2.215h-1.108v-1.107h-1.108v1.107h1.108v1.108h-2.215v1.108h-1.108v1.107h-1.108v1.108h-1.108v1.108h-1.107v1.107h-1.108c-2.892 3.613-3.62 5.2-4.772 8.122-1.307-2.643-2.867-4.468-5.568-5.676l-.028-.007c-.492-.127-.74-.19-1.08.284-.345.483-.134.918.278 1.43.288.358.585.708.882 1.058.82.967 1.639 1.932 2.256 3.05.615 1.11 1.323 2.668 1.87 3.872.332.73.605 1.331.76 1.62.33.61 1.128.878 1.434.878 1.476-.175 1.618-.871 1.862-2.067.026-.127.053-.26.083-.398.505-2.362 1.159-4.803 4.238-7.736v-1.106h1.108V20.4h1.108v-1.108h1.108v-1.107h1.107v-1.108h1.108v-1.108h1.108v-1.107h1.107v-2.216H38.1v-1.108h1.108v-1.107H38.1v1.107h-1.108Zm0 0h-1.107v1.108h-1.108v1.108h1.108v-1.108h1.107v-1.108Zm-4.43 6.647v-1.108h-1.108v1.108h1.108Zm-1.108-3.323v1.107h1.108v-1.107h-1.108Z" clip-rule="evenodd"/></g></svg>
